X:1
T:James Gibb editions
T:Psalm 26 (Becker) - Schütz
%%score [ ( 1 2 ) ( 3 4 ) ]
L:1/8
Q:1/4=107
M:2/2
K:C
V:1 treble nm="Soprano Alto"
V:2 treble 
V:3 bass nm="Tenor Bass"
V:4 bass 
V:1
"^Cornelius Becker\n(1561-1604)""^Psalm 26, SWV 123""^Heinrich Schütz\n(1585-1672)" G4 E2 A2 | %1
w: ~Herr, schaff mir|
w: du wirst mich|
 G2 F2 E2 D2 | E4 G4 | A2 B2 c2 B2 | A4 G4 :|[M:2/2] c4 B2 A2 | G2 E2 (FE) D2 | C4 E4 | %8
w: Recht, nimm dich mein|an, ohn|Ur- sach man mich|pla- get,|prüf mich, wirst's|an- ders fin\- * den|nicht, als|
w: ja nicht fal- len|lan, ich|habs auf dich ge-|wa- get,||||
 F2 G2 A2 c2 | (_Bc) A2 G4 | G4 A3 G | A2 c2 d4 | c8 |] %13
w: daß mein Herz zu|dir * ge- richt,|dein Wort hab|ich vor *|gen.|
w: |||||
V:2
 C4 C2 C2 | E2 D2 B,2 A,2 | B,4 E4 | E2 G2 A2 G2 | (G2 ^F2) G4 :|[M:2/2] E4 E2 C2 | %6
 C2 C2 (A,C) B,2 | C4 C4 | D2 E2 F2 F2 | (DG) F2 E4 | E4 F3 G | F2 G2 G4 | E8 |] %13
V:3
 E,4 G,2 F,2 | E,2 A,2 ^G,2 A,2 | ^G,4 B,4 | C2 D2 A,2 D2 | D4 D4 :|[M:2/2] A,4 G,2 F,2 | %6
w: ||||||
 E,2 G,2 (F,G,) G,2 | G,4 A,4 | A,2 C2 C2 A,2 | %9
w: |||
"^2. Mit Leuten, die nicht richtig sein, kann ich nicht einig bleiben,\nich haß von Grund des Herzens mein die gottlos Wesen treiben,\nich hüte mich vor Missetat, mein Seel kommt nicht in ihren Rat,\nich will als ihr Feind sterben.\n\n3. Wo dein Wort geht im vollen Schwang, laß ich mich gerne finden,\nzu opfern dir, Herr, Lob und Dank, dein Wunder zu verkünden.\nDie heilig Stätt ist mir die liebst, da du dich zu erkennen gibst\nund dein Nam wird geehret.\n\n5. Du weißt mein Herz in Unschuld rein, drum wirst mir Gnad erzeigen,\nich halt mich nach dem Willen dein, mein Knie vor dir ich beuge,\nich will dich loben, Gott, mein Herr, und deinen Namen preisen sehr\nin der großen Gemeine." G,2 C2 C4 | %10
w: |
 C4 C3 C | C2 E (C2 B,/A,/ B,2) | C8 |] %13
w: |* * Au\- * * *||
V:4
 C,4 C,2 F,,2 | C,2 D,2 E,2 F,2 | E,4 E,4 | A,2 G,2 F,2 G,2 | D,4 G,,4 :|[M:2/2] A,,4 E,2 F,2 | %6
 C,2 C,2 (D,C,) G,,2 | C,4 A,,4 | D,2 C,2 F,2 F,2 | (G,E,) F,2 C,4 | C,4 F,3 E, | F,2 C,2 G,4 | %12
 C,8 |] %13

